svgs/light/masks-theater.svg

<svg xmlns="http://www.w3.org/2000/svg" viewBox="0 0 640 512"><!--! Font Awesome Pro 6.0.0-alpha3 by @fontawesome - https://fontawesome.com License - https://fontawesome.com/license (Commercial License) --><path d="M151 206c19.37-3.375 35.87-17.88 45.25-39.63c3.5-8.125-.25-17.5-8.498-21c-8-3.5-17.5 .25-21 8.375C163.9 160.6 157.1 172.5 145.5 174.5C133.8 176.6 123.5 167.8 118.4 162.3C112.3 155.8 102.1 155.5 95.77 161.5c-6.5 6.125-6.75 16.25-.75 22.62C100.3 189.6 121.4 211.4 151 206zM339.2 226.9c5.125-5.375 15.5-14.5 27.25-12.25c11.62 2.125 18.25 13.88 21.25 20.75c3.5 8.25 12.1 11.88 20.1 8.375c8.125-3.375 11.88-12.88 8.5-21c-9.5-22.12-25.62-36.25-45.25-39.63C352.5 179.8 332.5 187.4 316 205C310 211.4 310.3 221.5 316.8 227.5C323.1 233.6 333.3 233.4 339.2 226.9zM160.4 325c.7246-.9961 12.34-16.05 37.09-26.39c.0645-.3867 .0488-.7988 .1172-1.184l6.105-34.75c-44.55 12.24-67.07 40.78-68.19 42.2c-5.5 6.875-4.5 17 2.375 22.5C145.8 333.8 155.8 330.8 160.4 325zM513.9 208.1c-19.5-3.5-39.5 4.25-56.12 21.88c-5.998 6.375-5.75 16.5 .75 22.62c6.375 6 16.5 5.75 22.62-.75c5.123-5.5 15.37-14.38 27.12-12.25c11.75 2.125 18.37 13.88 21.25 20.75c3.625 8.25 13.12 11.88 21.12 8.375c8.125-3.375 11.88-12.88 8.375-21C549.6 226 533.2 211.5 513.9 208.1zM519.5 318.8c-26.25 16-62.1 21.25-100.9 14.62c-37.75-6.75-70.5-24.25-89.74-48.25c-9.125-11.38-27.25-5.5-28.5 8.75c-5.25 63 38.75 119 102.2 130.3c21.12 3.75 114.1 6.5 140.6-87.5C546.1 322.9 531.1 311.3 519.5 318.8zM408.2 392.6c-33.25-5.875-59.25-28.12-70.37-57c21.38 14.12 47.25 24.25 75.25 29.25c27.1 4.875 55.75 4.25 80.62-1.75C473.4 386.5 441.4 398.4 408.2 392.6zM64.27 301.3L32.64 121.4C30.02 106.5 36.52 92 48.77 85.13c25.05-13.88 125.1-68.37 264.1-48.69c17.56-2.695 35.27-4.166 52.97-4.932c-10.37-13.99-24.6-23.22-40.65-25.77C301.3 1.857 277.3-.0001 253.4-.0001c-76.74 0-152.4 19.32-220.1 57.07C9.021 70.45-3.854 98.5 1.021 126.6l31.75 180.2c14.25 80.75 136.4 142.4 204.5 142.4c3.957 0 7.617-.2402 11.26-.6855c-8.389-10.53-16.05-21.18-22.5-31.94C167.1 410.5 74.58 359.3 64.27 301.3zM606.8 121C521.8 73.78 440.2 64 386.5 64c-23.84 0-47.94 1.834-71.69 5.623C287.5 74.05 265.8 95.9 260.8 123.1L229 303.5c-6.877 38.63 11.31 86.9 49.8 132.2C289.7 448.4 346.7 512 402.8 512c70.47 0 189.9-61.05 204.4-142.1l31.75-179.5C643.8 162.3 630.8 134.4 606.8 121zM607.5 184.1l-31.75 179.5c-10.1 61.57-115.5 115.7-172.1 115.7c-38.1 0-86.87-50.23-99.5-65.06c-31.88-37.51-47.75-77.15-42.63-105.9l31.62-179.5c2.625-14.71 13.75-26.17 27.62-28.42c23.31-3.719 45.58-5.311 66.66-5.311c107.5 0 183.7 41.38 204.7 53.04C603.5 155.8 609.1 170.3 607.5 184.1z"/></svg>

<svg xmlns="http://www.w3.org/2000/svg" viewBox="0 0 640 512"><!-- Font Awesome Pro 6.0.0-alpha2 by @fontawesome - https://fontawesome.com License - https://fontawesome.com/license (Commercial License) --><path d="M151.012 206C170.385 202.625 186.885 188.125 196.258 166.375C199.758 158.25 196.008 148.875 187.76 145.375C179.76 141.875 170.26 145.625 166.76 153.75C163.885 160.625 157.137 172.5 145.512 174.5C133.762 176.625 123.514 167.75 118.389 162.25C112.264 155.75 102.139 155.5 95.765 161.5C89.265 167.625 89.015 177.75 95.015 184.125C100.264 189.625 121.389 211.375 151.012 206ZM339.248 226.875C344.373 221.5 354.748 212.375 366.496 214.625C378.121 216.75 384.746 228.5 387.746 235.375C391.246 243.625 400.744 247.25 408.744 243.75C416.869 240.375 420.619 230.875 417.244 222.75C407.744 200.625 391.621 186.5 371.996 183.125C352.498 179.75 332.5 187.375 316 205C310 211.375 310.25 221.5 316.75 227.5C323.125 233.625 333.25 233.375 339.248 226.875ZM160.385 325C161.109 324.004 172.726 308.947 197.476 298.609C197.541 298.223 197.525 297.811 197.594 297.426L203.699 262.674C159.15 274.918 136.633 303.449 135.512 304.875C130.012 311.75 131.012 321.875 137.887 327.375C145.762 333.75 155.762 330.75 160.385 325ZM513.861 208.125C494.363 204.625 474.365 212.375 457.74 230C451.742 236.375 451.99 246.5 458.49 252.625C464.865 258.625 474.99 258.375 481.115 251.875C486.238 246.375 496.488 237.5 508.238 239.625C519.986 241.75 526.611 253.5 529.486 260.375C533.111 268.625 542.609 272.25 550.609 268.75C558.734 265.375 562.484 255.875 558.984 247.75C549.609 226 533.236 211.5 513.861 208.125ZM519.486 318.75C493.238 334.75 456.49 340 418.619 333.375C380.871 326.625 348.123 309.125 328.875 285.125C319.75 273.75 301.627 279.625 300.377 293.875C295.127 356.875 339.123 412.875 402.619 424.125C423.742 427.875 517.611 430.625 543.234 336.625C546.984 322.875 531.986 311.25 519.486 318.75ZM408.244 392.625C374.996 386.75 348.998 364.5 337.873 335.625C359.248 349.75 385.121 359.875 413.119 364.875C441.117 369.75 468.865 369.125 493.738 363.125C473.365 386.5 441.367 398.375 408.244 392.625ZM64.267 301.25L32.644 121.375C30.019 106.5 36.519 92 48.767 85.125C73.822 71.246 174.752 16.756 312.836 36.436C330.398 33.74 348.105 32.27 365.805 31.504C355.437 17.512 341.174 8.297 325.125 5.75C301.252 1.875 277.252 0 253.379 0C176.635 0 101.014 19.5 33.269 57.25C9.021 70.625 -3.854 98.75 1.021 126.875L32.769 306.875C47.017 387.625 169.135 449.25 237.256 449.25C241.213 449.25 244.873 449.01 248.515 448.564C240.127 438.039 232.463 427.385 226.012 416.629C167.117 410.482 74.582 359.275 64.267 301.25ZM606.912 121.127C521.912 73.902 440.166 64 386.543 64C362.699 64 338.568 65.922 314.82 69.711C287.465 74.133 265.76 95.963 260.748 124.041L229.111 303.58C222.234 342.207 240.355 390.369 278.838 435.658C289.703 448.426 346.656 512 402.752 512C473.219 512 592.781 451.035 607.252 370.031L639.012 190.51C643.801 162.344 630.887 134.545 606.912 121.127ZM607.496 184.967L575.746 364.436C564.748 426.004 460.25 480.094 402.752 480.094C363.754 480.094 315.879 429.867 303.256 415.037C271.381 377.523 255.506 337.891 260.631 309.1L292.254 129.631C294.879 114.926 306.004 103.459 319.879 101.215C343.187 97.496 365.461 95.904 386.543 95.904C494.015 95.904 570.244 137.281 591.248 148.949C603.496 155.805 609.996 170.262 607.496 184.967Z"/></svg>
